X:1
T:Wishing, Hoping, Knowing
T:Wishing, Hoping, Knowing
T:Philip Paul Bliss
T:Philip Paul Bliss, 1874
T:Public Domain Courtesy of the Cyber Hymnal™
T:Public Domain Courtesy of the Cyber Hymnal™
C:Philip Paul Bliss
Z:Public Domain
Z:Courtesy of the Cyber Hymnal™
%%score ( 1 2 ) ( 3 4 )
L:1/8
Q:1/4=93
M:2/4
K:G
V:1 treble 
V:2 treble 
V:3 bass 
V:4 bass 
V:1
 [B,G] | [B,G]2 [DF][CE] | [CE]2 [B,D][B,D] | [DB]2 [Ec][DB] | [DA]3 [DA] | [DA]2 [DB][DA] | %6
w: 1.~A|long time I|wan- dered in|dark- ness and|sin, And|won- dered if|
w: 2.~I|heard the glad|Gos- pel of|“good will to|men”; I|read “who- so-|
w: 3.~Oh,|mer- cy sur-|pris- ing, He|saves ev- en|me! “Thy|por- tion for-|
 [DA]2 [DF][DA] | [^CG]2 [CF][CE] | D3 [=CD] | [B,G]2 [DF][CE] | [CE]2 [B,D][B,D] | %11
w: ev- er the|light would shine|in; I|heard Chris- tian|friends tell of|
w: ev- er” a-|gain and a-|gain; I|said to my|soul, “Can that|
w: ev- er,” He|says, “I will|be.” On|His word I’m|rest- ing— as-|
 [DB]2 [CA][DB] | [Ec]3 [Ec] | [Dd]2 [DB][DG] | [EG]2 [CE][CE] | D2 [DF][CA] | [B,G]3 || %17
w: rap- tures di-|vine, And|wished, how I|wished, that their|Sav- ior were|mine.|
w: prom- ise be|thine?” And|then be- gan|hop- ing that|Je- sus were|mine.|
w: sur- ance di-|vine— I’m|“hop- ing” no|lon- ger— I|know He is|mine!|
"^Refrain" G | [GB]2 [GB]>[G^A] | [GB]2 [GA][GB] | [Gc]2 [Gc]>[GB] | [Gc]3 [Gc] | [Gd]2 [DB][DG] | %23
w: I|wished He were|mine, yes, I|wished He were|mine; I|wished, how I|
w: I|hoped He was|mine, yes, I|hoped He was|mine; I|then be- gan|
w: I|know He is|mine, yes, I|know He is|mine; I’m|“hop- ing” no|
 [EG]2 [CE][CE] | D2 [DF][CA] | [B,G]3 |] %26
w: wished, that their|Sav- ior were|mine.|
w: hop- ing that|Je- sus was|mine.|
w: lon- ger— I|know He is|mine!|
V:2
 x | x4 | x4 | x4 | x4 | x4 | x4 | x4 | D3 x | x4 | x4 | x4 | x4 | x4 | x4 | (B,A,) x2 | x3 || G | %18
 x4 | x4 | x4 | x4 | x4 | x4 | (B,A,) x2 | x3 |] %26
V:3
 G, | G,2 G,G, | G,2 G,G, | G,2 G,G, | [D,F,]3 [D,F,] | [D,F,]2 [D,G,][D,F,] | %6
 [D,F,]2 [D,A,][D,F,] | [A,,E,]2 [A,,A,][A,,G,] | [D,F,]3 [D,A,] | [G,,G,]2 [G,,G,][G,,G,] | %10
 [G,,G,]2 [G,,G,][G,,G,] | G,2 G,G, | [C,G,]3 [C,G,] | [B,,G,]2 [B,,G,][B,,G,] | %14
 [C,C]2 [C,G,][C,G,] | (G,F,) [D,B,][D,F,] | [G,,G,]3 || [G,B,] | [G,D]2 [G,D]>[G,^C] | %19
 [G,D]2 [G,C][G,D] | [C,E]2 [C,E]>[C,E] | [C,E]3 [C,E] | [B,,D]2 [B,,G,][B,,G,] | %23
 [C,C]2 [C,G,][C,G,] | (G,F,) [D,A,][D,F,] | [G,,G,]3 |] %26
V:4
 x | x4 | x4 | x4 | x4 | x4 | x4 | x4 | x4 | x4 | x4 | G,2 G,G, | x4 | x4 | x4 | D,2 x2 | x3 || x | %18
 x4 | x4 | x4 | x4 | x4 | x4 | D,2 x2 | x3 |] %26

